X: 56
P: Polska
O: Leif Alpsj\"o
R: bond-polska
Z: John Chambers <jc@trillian.mit.edu>
M: 3/4
L: 1/8
K: G
|: "G"G2 Bd g>e | d>c BA G>B \
|1,3 "D7"D>F AB (3cAF | "G"G>A Bc d2 \
:|2,4 "D7"D>F Ac A>F | "G"G2 G4 :|
|: "G"{B}d2 d^c/d/ e>d | "Am"d<B c4 \
|1,3 "D7"D>F Ac e>c | "G"c>B BD G>B \
:|2,4 "D7"D>F Ac A>F | "G"G2 G4 :|
